X:163
T:Stumbling
C:Tanner
N:TablEdited by Larry Tanner
L:1/8
Q:1/4=190
M:4/4
K:G
"G"DE GA B2 DE | GA B2 DE GA | B4 {^c}"G7"d4 | "F7"c4 "E7"B4 | "A7"AB AG E2 AB | 
AG E2 AB AG | E8 | z2 EE G2 E2 | "D7"=F^F zA z4 | zA2A G2 F2 | "Em"G3B4z | z2 B2 A2 G2 | 
"A7"A3A BG z2 | A3A BG z2 | "D7"a3f ec2A | z=F ^FF E2 ^D2 | "G"DE GA B2 DE | GA B2 DE GA | 
BD BD "G7"dD dD | "F7"cD cD "E7"BD BD | "A7"AB AG E2 AB | AG E2 AB AG | E8 | z2 B2 BA zc | 
"Cm6"z4 ^D4 | z2 cc zd cz | "G"B4 D4 | z2 D2 E2 G2 | "A7"BA GF E2 cB | "D7"AG Fd zc "G"BA | 
G8 | z8 | 


